X:1
T:Beautiful Valley of Eden
T:William Fiske Sherwin
T:Beautiful Valley of Eden
T:Public Domain
T:Public Domain
C:William Fiske Sherwin
Z:Public Domain
%%score ( 1 2 ) ( 3 4 )
L:1/8
M:6/8
K:Eb
V:1 treble 
V:2 treble 
V:3 bass 
V:4 bass 
V:1
 [EB]>[EA][EG] [EG][B,F][B,E] | [Ec]3 [EB]3 | [EG][DF]E [GB]2 [EG] | [DF]6 | %4
w: 1.~Beau- ti- ful vall- ey of|E- den!|Sweet is thy noon- tide|O-|
w: 2.~O- ver the heart of the|mourn- er|Shin- eth thy gold- en|Wait-|
w: 3.~There is the home of my|Sav- ior;|There, with the blood washed|O-|
 [GB]>[FA][EG] [EG][B,F][B,E] | (E2 A) [GB]3 | [FA][EG][DF] [DB]2 [B,D] | [B,E]6 || %8
w: ver the heart of the wear-|y, * Breath-|thy waves of balm. Beau-|ti-|
w: ing the songs of the an-|gels * Down|the far a- way. *||
w: ver the high- lands of glo-|ry * Roll-|the great new song. *||
"^Refrain" [Ge]>[Ge][Ge] [Ge][Fd][Ec] | [GB]3 [EG]3 | [DF][EG][FA] [Ac]2 [GB] | %11
w: ful vall- ey of E- den,|Home of|the pure and blest, How|
w: |||
w: |||
 ([EG]3 [GB]2) [Ge] | [Ae]>[Ae][ce] [ce][Bd][Ac] | [GB]3 [Ge]2 [Ac] | [GB][EG][B,E] [DF]2 [DB] | %15
w: oft- * en|a- mid the wild bill- ows|I dream of|thy rest, sweet rest! *|
w: ||||
w: ||||
 E6 |] %16
w: |
w: |
w: |
V:2
 x6 | x6 | x2 E x3 | x6 | x6 | c3 x3 | x6 | x6 || x6 | x6 | x6 | x6 | x6 | x6 | x6 | E6 |] %16
w: ||calm;|||ing|||||||||||
w: ||day,|||from|||||||||||
w: ||throng,|||eth|||||||||||
V:3
 [E,G,]>[E,C][E,B,] [E,B,][E,A,][E,G,] | [A,,A,]3 [E,G,]3 | [E,B,][E,A,][E,G,] [E,B,]2 [E,B,] | %3
w: ~ ~ ~ ~ ~ ~|~ ~|~ ~ ~ ~ ~|
 B,6 | [E,B,]>[E,B,][E,B,] [E,B,][E,A,][E,G,] | (A,2 C) [E,E]3 | %6
w: ~|~ ~ ~ ~ ~ ~|~ * ~|
 [B,,D][B,,E][B,,B,] [B,,F,]2 [B,,A,] | [E,G,]6 || [C,C]>[C,C][C,C] [G,C][G,=B,][A,C] | %9
w: ~ ~ ~ ~ ~|~|~ ~ ~ ~ ~ ~|
 [E,E]3 [E,B,]3 | [B,,B,][B,,B,][B,,B,] [B,,B,]2 [B,,B,] | [E,B,]2 [E,B,] [E,B,]2 [E,B,] | %12
w: ~ ~|~ ~ the pure and|blest, * * *|
 [A,C]>[A,C][A,E] [A,,E][A,,E][A,,E] | [E,E]3 [E,B,]2 [A,,E] | %14
w: ||
 [B,,E][B,,B,][B,,G,] [B,,A,]2 [B,,A,] | [E,G,]6 |] %16
w: ||
V:4
 x6 | x6 | x6 | B,6 | x6 | A,,3 x3 | x6 | x6 || x6 | x6 | x6 | x6 | x6 | x6 | x6 | x6 |] %16
w: |||~||~|||||||||||

